public/search.svg

<?xml version="1.0" encoding="UTF-8"?>
<svg width="18px" height="18px" viewBox="0 0 18 18" version="1.1" xmlns="http://www.w3.org/2000/svg" xmlns:xlink="http://www.w3.org/1999/xlink">
    <title>22CC3258-380A-4A24-BD79-E83D29483947</title>
    <g id="Dark" stroke="none" stroke-width="1" fill="none" fill-rule="evenodd">
        <g id="Wallet-SignedIn" transform="translate(-541.000000, -31.000000)" fill="#777E93" stroke="#777E93" stroke-width="0.66612652">
            <g id="Group-2" transform="translate(520.000000, 15.000000)">
                <g id="Group" transform="translate(22.000000, 16.000000)">
                    <g id="icon_search" transform="translate(0.000000, 1.000000)">
                        <path d="M6.68255531,12.0113648 C3.73960834,12.0113648 1.35354315,9.62533983 1.35354315,6.68244253 C1.35354315,3.73954523 3.73960834,1.35352031 6.68255531,1.35352031 C9.62550227,1.35352031 12.0115675,3.73954523 12.0115675,6.68244253 C12.0082368,9.6240076 9.62417002,12.0080342 6.68255531,12.0113648 M15.8131515,14.8709976 L11.8370423,10.8949556 C14.1691513,8.04264993 13.7474932,3.83879641 10.8951394,1.50672682 C8.04278566,-0.825342766 3.8388612,-0.403691795 1.50675225,2.44861383 C-0.825356694,5.30091945 -0.403698607,9.50477297 2.44865515,11.8368426 C4.90599588,13.8458462 8.43779869,13.8458462 10.8951394,11.8368426 L14.8712486,15.8128846 C15.1357008,16.0686729 15.5573589,16.0613456 15.8131515,15.7962318 C16.0622828,15.5384452 16.0622828,15.1294504 15.8131515,14.8709976" id="Fill-1"></path>
                    </g>
                </g>
            </g>
        </g>
    </g>
</svg>

<?xml version="1.0" encoding="UTF-8" standalone="no"?>
<svg
   width="18px"
   height="18px"
   viewBox="0 0 18 18"
   version="1.1"
   xmlns="http://www.w3.org/2000/svg"
   xmlns:svg="http://www.w3.org/2000/svg">
    <path d="m 6.6825553,12.011365 c -2.942944,0 -5.3290122,-2.3860281 -5.3290122,-5.3289225 0,-2.9428943 2.3860682,-5.3289222 5.3290122,-5.3289222 2.942944,0 5.3290127,2.3860279 5.3290127,5.3289222 -0.0033,2.9415622 -2.3874009,5.3255915 -5.3290127,5.3289225 m 9.1305967,2.859633 -3.97611,-3.976042 C 14.169149,8.0426528 13.74749,3.8387941 10.895139,1.5067268 8.0427885,-0.82534043 3.8388589,-0.40368894 1.5067522,2.4486138 c -2.33210656,2.8523028 -1.91044795,7.0561615 0.941903,9.3882292 2.4573382,2.009001 5.9891459,2.009001 8.4464838,0 l 3.97611,3.976042 c 0.264452,0.255788 0.68611,0.24846 0.941903,-0.01665 0.249131,-0.257787 0.249131,-0.666782 0,-0.925234"/>
</svg>
